X:1
T:Tank,The.(plus “Another Way” in C). RHu.001
S:R.Hughes MS,1823,Whitchurch,Shrops.
A:Whitchurch, Shropshire
Z:Neil Brookes 2006
M:2/4
L:1/8
Q:1/4=180
K:G
G2g2|e2e2|dedc|BAG2|Bcd2|cde2|d2f2|g4″cr in MS”:|!
|:B2Bc|d2d2|ecAG|FEDC|B2Bc|d2d2|ecAF|G4″cr in MS”:|!
K:C
|:”Another Way”c2c’2|a2a2|gagf|edc2|efg2|fga2|g2b2|c’4:|!
|:e2ef|g2g2|afdc|BAGF|e2ef|g2g2|afdB|c4:|

